X:1
T:Mélodies pour Piano et Chant (Chansons populaires)
T:Le clairon fleuri
T:2. Le clairon fleuri (pour Ténor: ton original) 
T:Augusta Holmès
T:Mélodies pour Piano et Chant 
T:(Holmès)
T:Creative Commons copyright waiver (CC0 1.0 Universal)
T:Creative Commons copyright waiver (CC0 1.0 Universal)
T:Creative Commons copyright waiver (CC0 1.0 Universal)
T:Creative Commons copyright waiver (CC0 1.0 Universal)
T:Creative Commons copyright waiver (CC0 1.0 Universal)
T:Creative Commons copyright waiver (CC0 1.0 Universal)
C:Augusta Holmès
Z:Augusta Holmès
Z:Creative Commons copyright waiver (CC0 1.0 Universal)
L:1/8
Q:1/4=116
M:4/4
K:F
V:1 treble nm="Chant\nVoice"
V:1
"^Mouvement de Marche  (\n)\n" z8 | z8 | z8 | z8 ||!f! !>!f2!f! !>!c2!mf! (3:2:2d2 B G2 | %5
w: ||||Toc! toc! Ou- vre moi,|
 (3A G F c2 A2- (3A z F |"^cresc." (3:2:2G2 G (3:2:2c2 c (3A z c (3de f | !>!e2 !>!d2!ff! !>!g4 | %8
w: ma belle a- mi- e! _ Ne|me re- fu- se pas, Je m'en * vais|aux com- bats!|
 z8 | z8 | z8 | z8 || z8 | z8 | z8 | z8 | z8 | z8 | z8 | z8 || z8 | z8 | z8 | z8 || z8 | z8 | z8 | %27
w: |||||||||||||||||||
 z8 | z8 | z8 | z8 | z8 || z8 | z8 | z8 | z8 | z8 | z8 | z8 | z8 || z8 | z8 | z8 | z8 || z8 | z8 | %46
w: |||||||||||||||||||
 z8 | z8 | z8 | z8 | z8 | z8 || z8 | z8 | z8 | z8 | z8 | z8 | z8 | z8 |] %60
w: ||||||||||||||

